X:149
T:Sweet Jessie the Flower of Dunblane. JGi.149
M:6/8
L:1/8
Q:3/8=60
S:Joshua Gibbons MS,1823,Tealby,Lincs.
R:Air
O:Tealby,Lincolnshire
Z:VMP/R.Greig, 2009
K:C
(c/d/)|e>fe dg>e|c>Bc dB(d/B/)|G>AF EGB|c>de {e}d2(c/d/)|
e>fe d>ge|c>Bc d>B (c/A/)|G>AF EGc|d>AB c2:|
c/d/|e>cd eag|e>cd e>cd|d>Bc d>ge|d>BA AG2(G/A/)|
c>ed (ecd)|e>ge f>de|fga gec|d>ABc2(c/B/)|
G>AF EG (c/d/)|e>ge f>de|fga gec|d>AB c2|]

